bernoullicharts/pow_x_3_4__mean.svg

<?xml version="1.0" encoding="utf-8" standalone="no"?>
<!DOCTYPE svg PUBLIC "-//W3C//DTD SVG 1.1//EN"
  "http://www.w3.org/Graphics/SVG/1.1/DTD/svg11.dtd">
<!-- Created with matplotlib (https://matplotlib.org/) -->
<svg height="345.6pt" version="1.1" viewBox="0 0 460.8 345.6" width="460.8pt" xmlns="http://www.w3.org/2000/svg" xmlns:xlink="http://www.w3.org/1999/xlink">
 <defs>
  <style type="text/css">
*{stroke-linecap:butt;stroke-linejoin:round;}
  </style>
 </defs>
 <g id="figure_1">
  <g id="patch_1">
   <path d="M 0 345.6 
L 460.8 345.6 
L 460.8 0 
L 0 0 
z
" style="fill:#ffffff;"/>
  </g>
  <g id="axes_1">
   <g id="patch_2">
    <path d="M 57.6 307.584 
L 414.72 307.584 
L 414.72 41.472 
L 57.6 41.472 
z
" style="fill:#ffffff;"/>
   </g>
   <g id="matplotlib.axis_1">
    <g id="xtick_1">
     <g id="line2d_1">
      <defs>
       <path d="M 0 0 
L 0 3.5 
" id="me7344a94ff" style="stroke:#000000;stroke-width:0.8;"/>
      </defs>
      <g>
       <use style="stroke:#000000;stroke-width:0.8;" x="73.800255" xlink:href="#me7344a94ff" y="307.584"/>
      </g>
     </g>
     <g id="text_1">
      <text style="font-family:DejaVu Sans;font-size:10px;font-style:normal;font-weight:normal;text-anchor:middle;" transform="rotate(-0, 73.800255, 322.182437)" x="73.800255" y="322.182437">0.0</text>
     </g>
    </g>
    <g id="xtick_2">
     <g id="line2d_2">
      <g>
       <use style="stroke:#000000;stroke-width:0.8;" x="138.744153" xlink:href="#me7344a94ff" y="307.584"/>
      </g>
     </g>
     <g id="text_2">
      <text style="font-family:DejaVu Sans;font-size:10px;font-style:normal;font-weight:normal;text-anchor:middle;" transform="rotate(-0, 138.744153, 322.182437)" x="138.744153" y="322.182437">0.2</text>
     </g>
    </g>
    <g id="xtick_3">
     <g id="line2d_3">
      <g>
       <use style="stroke:#000000;stroke-width:0.8;" x="203.688051" xlink:href="#me7344a94ff" y="307.584"/>
      </g>
     </g>
     <g id="text_3">
      <text style="font-family:DejaVu Sans;font-size:10px;font-style:normal;font-weight:normal;text-anchor:middle;" transform="rotate(-0, 203.688051, 322.182437)" x="203.688051" y="322.182437">0.4</text>
     </g>
    </g>
    <g id="xtick_4">
     <g id="line2d_4">
      <g>
       <use style="stroke:#000000;stroke-width:0.8;" x="268.631949" xlink:href="#me7344a94ff" y="307.584"/>
      </g>
     </g>
     <g id="text_4">
      <text style="font-family:DejaVu Sans;font-size:10px;font-style:normal;font-weight:normal;text-anchor:middle;" transform="rotate(-0, 268.631949, 322.182437)" x="268.631949" y="322.182437">0.6</text>
     </g>
    </g>
    <g id="xtick_5">
     <g id="line2d_5">
      <g>
       <use style="stroke:#000000;stroke-width:0.8;" x="333.575847" xlink:href="#me7344a94ff" y="307.584"/>
      </g>
     </g>
     <g id="text_5">
      <text style="font-family:DejaVu Sans;font-size:10px;font-style:normal;font-weight:normal;text-anchor:middle;" transform="rotate(-0, 333.575847, 322.182437)" x="333.575847" y="322.182437">0.8</text>
     </g>
    </g>
    <g id="xtick_6">
     <g id="line2d_6">
      <g>
       <use style="stroke:#000000;stroke-width:0.8;" x="398.519745" xlink:href="#me7344a94ff" y="307.584"/>
      </g>
     </g>
     <g id="text_6">
      <text style="font-family:DejaVu Sans;font-size:10px;font-style:normal;font-weight:normal;text-anchor:middle;" transform="rotate(-0, 398.519745, 322.182437)" x="398.519745" y="322.182437">1.0</text>
     </g>
    </g>
    <g id="text_7">
     <text style="font-family:DejaVu Sans;font-size:10px;font-style:normal;font-weight:normal;text-anchor:middle;" transform="rotate(-0, 236.16, 335.860562)" x="236.16" y="335.860562">Input Coin's Heads Probability (λ)</text>
    </g>
   </g>
   <g id="matplotlib.axis_2">
    <g id="ytick_1">
     <g id="line2d_7">
      <defs>
       <path d="M 0 0 
L -3.5 0 
" id="m608c102ba6" style="stroke:#000000;stroke-width:0.8;"/>
      </defs>
      <g>
       <use style="stroke:#000000;stroke-width:0.8;" x="57.6" xlink:href="#m608c102ba6" y="295.730162"/>
      </g>
     </g>
     <g id="text_8">
      <text style="font-family:DejaVu Sans;font-size:10px;font-style:normal;font-weight:normal;text-anchor:end;" transform="rotate(-0, 50.6, 299.529381)" x="50.6" y="299.529381">0.0</text>
     </g>
    </g>
    <g id="ytick_2">
     <g id="line2d_8">
      <g>
       <use style="stroke:#000000;stroke-width:0.8;" x="57.6" xlink:href="#m608c102ba6" y="247.29773"/>
      </g>
     </g>
     <g id="text_9">
      <text style="font-family:DejaVu Sans;font-size:10px;font-style:normal;font-weight:normal;text-anchor:end;" transform="rotate(-0, 50.6, 251.096948)" x="50.6" y="251.096948">0.2</text>
     </g>
    </g>
    <g id="ytick_3">
     <g id="line2d_9">
      <g>
       <use style="stroke:#000000;stroke-width:0.8;" x="57.6" xlink:href="#m608c102ba6" y="198.865297"/>
      </g>
     </g>
     <g id="text_10">
      <text style="font-family:DejaVu Sans;font-size:10px;font-style:normal;font-weight:normal;text-anchor:end;" transform="rotate(-0, 50.6, 202.664516)" x="50.6" y="202.664516">0.4</text>
     </g>
    </g>
    <g id="ytick_4">
     <g id="line2d_10">
      <g>
       <use style="stroke:#000000;stroke-width:0.8;" x="57.6" xlink:href="#m608c102ba6" y="150.432865"/>
      </g>
     </g>
     <g id="text_11">
      <text style="font-family:DejaVu Sans;font-size:10px;font-style:normal;font-weight:normal;text-anchor:end;" transform="rotate(-0, 50.6, 154.232084)" x="50.6" y="154.232084">0.6</text>
     </g>
    </g>
    <g id="ytick_5">
     <g id="line2d_11">
      <g>
       <use style="stroke:#000000;stroke-width:0.8;" x="57.6" xlink:href="#m608c102ba6" y="102.000432"/>
      </g>
     </g>
     <g id="text_12">
      <text style="font-family:DejaVu Sans;font-size:10px;font-style:normal;font-weight:normal;text-anchor:end;" transform="rotate(-0, 50.6, 105.799651)" x="50.6" y="105.799651">0.8</text>
     </g>
    </g>
    <g id="ytick_6">
     <g id="line2d_12">
      <g>
       <use style="stroke:#000000;stroke-width:0.8;" x="57.6" xlink:href="#m608c102ba6" y="53.568"/>
      </g>
     </g>
     <g id="text_13">
      <text style="font-family:DejaVu Sans;font-size:10px;font-style:normal;font-weight:normal;text-anchor:end;" transform="rotate(-0, 50.6, 57.367219)" x="50.6" y="57.367219">1.0</text>
     </g>
    </g>
    <g id="text_14">
     <text style="font-family:DejaVu Sans;font-size:10px;font-style:normal;font-weight:normal;text-anchor:middle;" transform="rotate(-90, 28.617187, 174.528)" x="28.617187" y="174.528">Simulated Mean / Function Value</text>
    </g>
   </g>
   <g id="line2d_13">
    <path clip-path="url(#pe7dfc12507)" d="M 73.832727 295.488 
L 77.112066 287.958317 
L 80.391405 282.707616 
L 83.670744 278.101108 
L 86.950083 273.869412 
L 90.229421 269.896459 
L 93.50876 266.11833 
L 96.788099 262.494931 
L 100.067438 258.99896 
L 103.346777 255.610729 
L 106.626116 252.315432 
L 109.905455 249.101567 
L 113.184793 245.959968 
L 116.464132 242.883172 
L 119.743471 239.865 
L 123.02281 236.900259 
L 126.302149 233.98453 
L 129.581488 231.114009 
L 132.860826 228.285396 
L 136.140165 225.495799 
L 139.419504 222.742667 
L 142.698843 220.023734 
L 145.978182 217.336975 
L 149.257521 214.680573 
L 152.53686 212.052887 
L 155.816198 209.452428 
L 159.095537 206.877841 
L 162.374876 204.327889 
L 165.654215 201.801436 
L 168.933554 199.297438 
L 172.212893 196.814931 
L 175.492231 194.353022 
L 178.77157 191.910886 
L 182.050909 189.487752 
L 185.330248 187.082903 
L 188.609587 184.69567 
L 191.888926 182.325426 
L 195.168264 179.971582 
L 198.447603 177.633588 
L 201.726942 175.310922 
L 205.006281 173.003095 
L 208.28562 170.709646 
L 211.564959 168.430137 
L 214.844298 166.164154 
L 218.123636 163.911306 
L 221.402975 161.67122 
L 224.682314 159.443542 
L 227.961653 157.227938 
L 231.240992 155.024086 
L 234.520331 152.83168 
L 237.799669 150.650431 
L 241.079008 148.48006 
L 244.358347 146.3203 
L 247.637686 144.170897 
L 250.917025 142.031608 
L 254.196364 139.9022 
L 257.475702 137.782447 
L 260.755041 135.672135 
L 264.03438 133.571058 
L 267.313719 131.479016 
L 270.593058 129.395819 
L 273.872397 127.321283 
L 277.151736 125.255231 
L 280.431074 123.197493 
L 283.710413 121.147902 
L 286.989752 119.106302 
L 290.269091 117.072538 
L 293.54843 115.046462 
L 296.827769 113.027931 
L 300.107107 111.016807 
L 303.386446 109.012956 
L 306.665785 107.016247 
L 309.945124 105.026557 
L 313.224463 103.043762 
L 316.503802 101.067745 
L 319.78314 99.098393 
L 323.062479 97.135593 
L 326.341818 95.179238 
L 329.621157 93.229225 
L 332.900496 91.28545 
L 336.179835 89.347817 
L 339.459174 87.416229 
L 342.738512 85.490593 
L 346.017851 83.570818 
L 349.29719 81.656816 
L 352.576529 79.748502 
L 355.855868 77.845791 
L 359.135207 75.948604 
L 362.414545 74.056859 
L 365.693884 72.170481 
L 368.973223 70.289394 
L 372.252562 68.413524 
L 375.531901 66.542801 
L 378.81124 64.677153 
L 382.090579 62.816513 
L 385.369917 60.960815 
L 388.649256 59.109994 
L 391.928595 57.263986 
L 395.207934 55.422729 
L 398.487273 53.586162 
" style="fill:none;stroke:#1f77b4;stroke-linecap:square;stroke-width:1.5;"/>
   </g>
   <g id="line2d_14">
    <path clip-path="url(#pe7dfc12507)" d="M 73.832727 295.245838 
L 77.112066 289.91827 
L 80.391405 283.622054 
L 83.670744 276.357189 
L 86.950083 274.419892 
L 90.229421 272.482595 
L 93.50876 265.702054 
L 96.788099 265.702054 
L 100.067438 257.952865 
L 103.346777 259.890162 
L 106.626116 257.952865 
L 109.905455 246.329081 
L 113.184793 241.970162 
L 116.464132 240.032865 
L 119.743471 235.673946 
L 123.02281 234.705297 
L 126.302149 228.409081 
L 129.581488 218.722595 
L 132.860826 227.440432 
L 136.140165 225.503135 
L 139.419504 224.050162 
L 142.698843 219.206919 
L 145.978182 221.628541 
L 149.257521 215.332324 
L 152.53686 209.036108 
L 155.816198 203.224216 
L 159.095537 198.865297 
L 162.374876 207.098811 
L 165.654215 199.349622 
L 168.933554 199.349622 
L 172.212893 190.147459 
L 175.492231 184.819892 
L 178.77157 192.084757 
L 182.050909 194.506378 
L 185.330248 177.070703 
L 188.609587 175.61773 
L 191.888926 184.335568 
L 195.168264 184.335568 
L 198.447603 174.649081 
L 201.726942 166.415568 
L 205.006281 177.555027 
L 208.28562 171.258811 
L 211.564959 183.366919 
L 214.844298 156.729081 
L 218.123636 157.213405 
L 221.402975 157.69773 
L 224.682314 160.603676 
L 227.961653 155.760432 
L 231.240992 159.635027 
L 234.520331 153.338811 
L 237.799669 157.69773 
L 241.079008 153.338811 
L 244.358347 140.262054 
L 247.637686 152.854486 
L 250.917025 144.136649 
L 254.196364 132.028541 
L 257.475702 130.575568 
L 260.755041 140.262054 
L 264.03438 128.63827 
L 267.313719 129.606919 
L 270.593058 132.028541 
L 273.872397 124.279351 
L 277.151736 134.450162 
L 280.431074 118.467459 
L 283.710413 116.530162 
L 286.989752 130.091243 
L 290.269091 113.624216 
L 293.54843 110.233946 
L 296.827769 107.812324 
L 300.107107 106.843676 
L 303.386446 109.749622 
L 306.665785 102.000432 
L 309.945124 103.453405 
L 313.224463 102.000432 
L 316.503802 102.484757 
L 319.78314 105.390703 
L 323.062479 86.502054 
L 326.341818 90.860973 
L 329.621157 99.578811 
L 332.900496 94.735568 
L 336.179835 93.282595 
L 339.459174 86.01773 
L 342.738512 84.080432 
L 346.017851 81.658811 
L 349.29719 80.205838 
L 352.576529 78.752865 
L 355.855868 75.846919 
L 359.135207 75.846919 
L 362.414545 78.268541 
L 365.693884 73.909622 
L 368.973223 68.582054 
L 372.252562 68.09773 
L 375.531901 65.676108 
L 378.81124 63.254486 
L 382.090579 62.285838 
L 385.369917 60.348541 
L 388.649256 59.864216 
L 391.928595 56.95827 
L 395.207934 55.989622 
L 398.487273 53.568 
" style="fill:none;stroke:#ff7f0e;stroke-linecap:square;stroke-width:1.5;"/>
   </g>
   <g id="patch_3">
    <path d="M 57.6 307.584 
L 57.6 41.472 
" style="fill:none;stroke:#000000;stroke-linecap:square;stroke-linejoin:miter;stroke-width:0.8;"/>
   </g>
   <g id="patch_4">
    <path d="M 414.72 307.584 
L 414.72 41.472 
" style="fill:none;stroke:#000000;stroke-linecap:square;stroke-linejoin:miter;stroke-width:0.8;"/>
   </g>
   <g id="patch_5">
    <path d="M 57.6 307.584 
L 414.72 307.584 
" style="fill:none;stroke:#000000;stroke-linecap:square;stroke-linejoin:miter;stroke-width:0.8;"/>
   </g>
   <g id="patch_6">
    <path d="M 57.6 41.472 
L 414.72 41.472 
" style="fill:none;stroke:#000000;stroke-linecap:square;stroke-linejoin:miter;stroke-width:0.8;"/>
   </g>
   <g id="text_15">
    <text style="font-family:DejaVu Sans;font-size:12px;font-style:normal;font-weight:normal;" transform="translate(112.047188 22.034625)">Simulated Mean for pow(x,3/4) Algorithm</text>
    <text style="font-family:DejaVu Sans;font-size:12px;font-style:normal;font-weight:normal;" transform="translate(132.609375 35.472)">(Wasserstein Distances in Legend)</text>
   </g>
   <g id="legend_1">
    <g id="patch_7">
     <path d="M 64.6 78.82825 
L 242.85 78.82825 
Q 244.85 78.82825 244.85 76.82825 
L 244.85 48.472 
Q 244.85 46.472 242.85 46.472 
L 64.6 46.472 
Q 62.6 46.472 62.6 48.472 
L 62.6 76.82825 
Q 62.6 78.82825 64.6 78.82825 
z
" style="fill:#ffffff;opacity:0.8;stroke:#cccccc;stroke-linejoin:miter;"/>
    </g>
    <g id="line2d_15">
     <path d="M 66.6 54.570437 
L 86.6 54.570437 
" style="fill:none;stroke:#1f77b4;stroke-linecap:square;stroke-width:1.5;"/>
    </g>
    <g id="line2d_16"/>
    <g id="text_16">
     <text style="font-family:DejaVu Sans;font-size:10px;font-style:normal;font-weight:normal;text-anchor:start;" transform="rotate(-0, 94.6, 58.070437)" x="94.6" y="58.070437">pow(x,3/4)</text>
    </g>
    <g id="line2d_17">
     <path d="M 66.6 69.248562 
L 86.6 69.248562 
" style="fill:none;stroke:#ff7f0e;stroke-linecap:square;stroke-width:1.5;"/>
    </g>
    <g id="line2d_18"/>
    <g id="text_17">
     <text style="font-family:DejaVu Sans;font-size:10px;font-style:normal;font-weight:normal;text-anchor:start;" transform="rotate(-0, 94.6, 72.748562)" x="94.6" y="72.748562">Simul. Mean (WD=0.008304)</text>
    </g>
   </g>
  </g>
 </g>
 <defs>
  <clipPath id="pe7dfc12507">
   <rect height="266.112" width="357.12" x="57.6" y="41.472"/>
  </clipPath>
 </defs>
</svg>

<svg height="460.8" viewBox="0 0 460.8 345.6" width="614.4" xmlns="http://www.w3.org/2000/svg" xmlns:xlink="http://www.w3.org/1999/xlink"><defs><style>*{stroke-linecap:butt;stroke-linejoin:round}</style></defs><g id="figure_1"><path d="M0 345.6h460.8V0H0z" fill="#fff" id="patch_1"/><g id="axes_1"><path d="M57.6 307.584h357.12V41.472H57.6z" fill="#fff" id="patch_2"/><g id="matplotlib.axis_1"><g id="xtick_1"><g id="line2d_1"><defs><path d="M0 0v3.5" id="mce03f7bd13" stroke="#000" stroke-width=".8"/></defs><use x="73.8" xlink:href="#mce03f7bd13" y="307.584" stroke="#000" stroke-width=".8"/></g><text x="73.8" y="322.182" font-family="DejaVu Sans" font-size="10" font-weight="400" text-anchor="middle" id="text_1">0.0</text></g><g id="xtick_2"><use x="138.744" xlink:href="#mce03f7bd13" y="307.584" stroke="#000" stroke-width=".8" id="line2d_2"/><text x="138.744" y="322.182" font-family="DejaVu Sans" font-size="10" font-weight="400" text-anchor="middle" id="text_2">0.2</text></g><g id="xtick_3"><use x="203.688" xlink:href="#mce03f7bd13" y="307.584" stroke="#000" stroke-width=".8" id="line2d_3"/><text x="203.688" y="322.182" font-family="DejaVu Sans" font-size="10" font-weight="400" text-anchor="middle" id="text_3">0.4</text></g><g id="xtick_4"><use x="268.632" xlink:href="#mce03f7bd13" y="307.584" stroke="#000" stroke-width=".8" id="line2d_4"/><text x="268.632" y="322.182" font-family="DejaVu Sans" font-size="10" font-weight="400" text-anchor="middle" id="text_4">0.6</text></g><g id="xtick_5"><use x="333.576" xlink:href="#mce03f7bd13" y="307.584" stroke="#000" stroke-width=".8" id="line2d_5"/><text x="333.576" y="322.182" font-family="DejaVu Sans" font-size="10" font-weight="400" text-anchor="middle" id="text_5">0.8</text></g><g id="xtick_6"><use x="398.52" xlink:href="#mce03f7bd13" y="307.584" stroke="#000" stroke-width=".8" id="line2d_6"/><text x="398.52" y="322.182" font-family="DejaVu Sans" font-size="10" font-weight="400" text-anchor="middle" id="text_6">1.0</text></g><text x="236.16" y="335.861" font-family="DejaVu Sans" font-size="10" font-weight="400" text-anchor="middle" id="text_7">Input Coin&apos;s Heads Probability (λ)</text></g><g id="matplotlib.axis_2"><g id="ytick_1"><g id="line2d_7"><defs><path d="M0 0h-3.5" id="m6d847eb4d3" stroke="#000" stroke-width=".8"/></defs><use x="57.6" xlink:href="#m6d847eb4d3" y="295.73" stroke="#000" stroke-width=".8"/></g><text x="50.6" y="299.529" font-family="DejaVu Sans" font-size="10" font-weight="400" text-anchor="end" id="text_8">0.0</text></g><g id="ytick_2"><use x="57.6" xlink:href="#m6d847eb4d3" y="247.298" stroke="#000" stroke-width=".8" id="line2d_8"/><text x="50.6" y="251.097" font-family="DejaVu Sans" font-size="10" font-weight="400" text-anchor="end" id="text_9">0.2</text></g><g id="ytick_3"><use x="57.6" xlink:href="#m6d847eb4d3" y="198.865" stroke="#000" stroke-width=".8" id="line2d_9"/><text x="50.6" y="202.665" font-family="DejaVu Sans" font-size="10" font-weight="400" text-anchor="end" id="text_10">0.4</text></g><g id="ytick_4"><use x="57.6" xlink:href="#m6d847eb4d3" y="150.433" stroke="#000" stroke-width=".8" id="line2d_10"/><text x="50.6" y="154.232" font-family="DejaVu Sans" font-size="10" font-weight="400" text-anchor="end" id="text_11">0.6</text></g><g id="ytick_5"><use x="57.6" xlink:href="#m6d847eb4d3" y="102" stroke="#000" stroke-width=".8" id="line2d_11"/><text x="50.6" y="105.8" font-family="DejaVu Sans" font-size="10" font-weight="400" text-anchor="end" id="text_12">0.8</text></g><g id="ytick_6"><use x="57.6" xlink:href="#m6d847eb4d3" y="53.568" stroke="#000" stroke-width=".8" id="line2d_12"/><text x="50.6" y="57.367" font-family="DejaVu Sans" font-size="10" font-weight="400" text-anchor="end" id="text_13">1.0</text></g><text transform="rotate(-90 28.617 174.528)" x="28.617" y="174.528" font-family="DejaVu Sans" font-size="10" font-weight="400" text-anchor="middle" id="text_14">Simulated Mean / Function Value</text></g><path clip-path="url(#pe95567b10f)" d="M73.833 295.488l3.28-7.53 3.278-5.25 3.28-4.607 3.28-4.232 3.278-3.973 3.28-3.778 3.28-3.623 3.278-3.496 3.28-3.388 3.28-3.296 3.278-3.213 3.28-3.142 3.28-3.077 3.278-3.018 3.28-2.965 3.28-2.915 3.278-2.871 3.28-2.829 3.28-2.79 3.279-2.752 3.279-2.72 3.28-2.686 3.279-2.656 3.279-2.628 3.28-2.6 3.279-2.575 3.279-2.55 3.28-2.527 3.279-2.504 3.279-2.482 3.28-2.462 3.279-2.442 3.279-2.423 3.28-2.405 3.279-2.387 3.279-2.37 3.28-2.354 3.279-2.338 3.279-2.323 3.28-2.308 3.279-2.293 3.279-2.28 3.28-2.266 3.279-2.253 3.279-2.24 3.28-2.227 3.279-2.216 3.279-2.204 3.28-2.192 3.279-2.182 3.279-2.17 3.28-2.16 3.279-2.15 3.279-2.138 3.28-2.13 3.279-2.12 3.279-2.11 3.28-2.1 3.279-2.093 3.28-2.083 3.278-2.075 3.28-2.066 3.28-2.058 3.278-2.05 3.28-2.04 3.28-2.034 3.278-2.027 3.28-2.018 3.28-2.011 3.278-2.004 3.28-1.997 3.28-1.99 3.278-1.982 3.28-1.976 3.28-1.97 3.278-1.962 3.28-1.957 3.28-1.95 3.278-1.944 3.28-1.937 3.28-1.932 3.279-1.925 3.279-1.92 3.28-1.914 3.279-1.908 3.279-1.903 3.28-1.897 3.279-1.892 3.279-1.887 3.28-1.88 3.279-1.876 3.279-1.871 3.28-1.866 3.279-1.86 3.279-1.856 3.28-1.851 3.279-1.846 3.279-1.841 3.28-1.837" fill="none" stroke="#1f77b4" stroke-linecap="square" stroke-width="1.5" id="line2d_13"/><path clip-path="url(#pe95567b10f)" d="M73.833 294.762l3.28-5.328 3.278-1.937 3.28-8.234 3.28-6.296 3.278-10.17 3.28 5.811 3.28-6.296 3.278-2.422 3.28.484 3.28-8.233 3.278 1.453 3.28-4.359 3.28-6.78 3.278-5.812 3.28-3.875 3.28 2.422 3.278-11.14 3.28 2.422 3.28-6.78 3.279 8.233 3.279-9.202 3.28 4.843 3.279-9.687h3.279l3.28-3.874 3.279-2.422 3.279-.969 3.28-4.843 3.279-8.233 3.279 8.718 3.28-15.499 3.279 17.436 3.279-20.826h3.28l3.279-12.108 3.279 9.686 3.28-1.453 3.279 4.36 3.279-13.562 3.28 1.453h3.279l3.279-5.812 3.28 2.422h3.279l3.279-6.296 3.28-.969 3.279-3.39 3.279 4.359 3.28-6.297 3.279-1.937 3.279-12.108 3.28 15.498 3.279 4.36 3.279-12.593 3.28-15.498 3.279 7.749 3.279 3.874 3.28-3.874 3.279-11.624 3.28-.969 3.278 4.844 3.28-9.687 3.28-8.718 3.278 7.75 3.28-2.907 3.28-7.264 3.278.484 3.28-4.359 3.28 3.39 3.278-2.906 3.28.969 3.28-9.202 3.278 6.78 3.28-6.296 3.28-.484 3.278-1.453 3.28-5.812 3.28-9.687 3.278 10.171 3.28-7.265 3.28.969 3.279-3.39 3.279-.485 3.28-1.453 3.279-4.843 3.279-.484 3.28-4.359 3.279.484 3.279-.484 3.28-.969 3.279-4.843 3.279 3.875 3.28-4.844 3.279-2.421 3.279-6.78 3.28 3.874 3.279-2.906 3.279-3.39 3.28-.969" fill="none" stroke="#ff7f0e" stroke-linecap="square" stroke-width="1.5" id="line2d_14"/><path d="M57.6 307.584V41.472" fill="none" stroke="#000" stroke-linecap="square" stroke-width=".8" id="patch_3"/><path d="M414.72 307.584V41.472" fill="none" stroke="#000" stroke-linecap="square" stroke-width=".8" id="patch_4"/><path d="M57.6 307.584h357.12" fill="none" stroke="#000" stroke-linecap="square" stroke-width=".8" id="patch_5"/><path d="M57.6 41.472h357.12" fill="none" stroke="#000" stroke-linecap="square" stroke-width=".8" id="patch_6"/><text x="236.16" y="35.472" font-family="DejaVu Sans" font-size="12" font-weight="400" text-anchor="middle" id="text_15">Expected Value in pow(x,3/4) Algorithm</text><g id="legend_1"><path d="M64.6 78.828h182.592q2 0 2-2V48.472q0-2-2-2H64.6q-2 0-2 2v28.356q0 2 2 2z" fill="#fff" opacity=".8" stroke="#ccc" id="patch_7"/><path d="M66.6 54.57h20" fill="none" stroke="#1f77b4" stroke-linecap="square" stroke-width="1.5" id="line2d_15"/><text x="94.6" y="58.07" font-family="DejaVu Sans" font-size="10" font-weight="400" id="text_16">pow(x,3/4)</text><path d="M66.6 69.249h20" fill="none" stroke="#ff7f0e" stroke-linecap="square" stroke-width="1.5" id="line2d_17"/><text x="94.6" y="72.749" font-family="DejaVu Sans" font-size="10" font-weight="400" id="text_17">Simulated Mean of pow(x,3/4)</text></g></g></g><defs><clipPath id="pe95567b10f"><path d="M57.6 41.472h357.12v266.112H57.6z"/></clipPath></defs></svg>
